X:1
T:Title
%%score { ( 1 4 ) | ( 2 3 ) }
L:1/8
M:6/8
K:G
V:1 treble nm="Grand Piano"
V:4 treble 
V:2 bass 
V:3 bass 
V:1
 z3 z2[Q:1/4=84] D | GF[B,DG] [DB]AG | AG[DFA] .B3 | ded .B3 | .[CA]3 z3 | GF[B,DG] [DB]A[B,DG] | %6
 D-[DG][DFA] .B3 | ded [GB]2 [FA] | [B,G]3- [B,G]2 [B,=FG] | .[CEG]2 [Ge] dB[B,=FG] | %10
 .[CEG]2 [Ge] [Gd]2 [GB] | [Bd]c[DGB] [GB][FA][DG] | [DG][B,F][B,DG] [DFA]2 D | GF[B,DG] [DB]AG | %14
 AG[DFA] .B3 | ded [DGB]2 [CFA] |[M:5/8] [B,G]-[B,G]- [B,G]3 |] %17
V:2
 z3 z2 [G,B,] | [G,D]-[G,CD]G, z C[G,B,D] | CB,D,[K:treble] .[G,DG]3 | %3
 [G,G]-[G,CG][G,B,G] .[G,DG]3 | z DD, G,,2 [G,B,] | [G,D]-[G,CD]G, z CG, | %6
 z B,D,[K:treble] .[G,DG]3 | [G,G]-[G,CG][G,B,G][K:bass] [D,D]2 [D,D] | G,,3- G,,2 G, | %9
 z[K:treble] c[C,C] [G,G]-[G,DG]G, | z c[C,C] [G,B,]2 [G,D] | .[G,D]3[K:bass] z3 | %12
 B,,A,,G,, D,2 D, | [G,D]-[G,CD]G, z C[G,B,D] | CB,D,[K:treble] .[G,DG]3 | .B,3[K:bass] z3 | %16
[M:5/8] G,,-G,,- G,,3 |] %17
V:3
 x6 | .B,3 .G,3 | .[D,D]3[K:treble] z3 | .B,3 z3 | .D,3 z3 | .B,3 .G,3 | .C,3[K:treble] z3 | %7
 .B,3[K:bass] z3 | x6 | .C,3[K:treble] .B,3 | .C,3 z3 | z A[K:bass]G, D,C,B,, | x6 | .B,3 .G,3 | %14
 .[D,D]3[K:treble] z3 | [G,G]-[G,CG][G,B,G][K:bass] D,2 D, |[M:5/8] x5 |] %17
V:4
 x6 | x6 | x6 | x6 | F-[FB][CDA] [B,DG]2 D | x6 | .[CA]3 z3 | x6 | x6 | x6 | x6 | z3 .D3 | x6 | %13
 x6 | x6 | x6 |[M:5/8] x5 |] %17

